X:1
T:Title
%%score ( 1 2 ) { 3 | 4 }
L:1/8
Q:1/4=107
M:6/8
K:C
V:1 treble nm="Grand Piano, Soprano"
V:2 treble 
V:3 treble nm="Choir Pad, Fear Not, I Am with Thee"
V:4 bass 
V:1
 [EG]2 [EG] [CE][EG][Ec] | [Ge]3 [Ge]3 | [Gc]2 [Gc] dc[FA] | [EG]6 | [FG]2 [FG] [B,D][CE][DF] | %5
w: By~J.~C.~H.~&~V.~A.~White,~1896 * * * *|||||
 [FB]3 [FB]3 | [FG]2 [FG] [DG]2 [B,F] | [CE]6 | [EG]2 [EG] [CE][EG][Ec] | [Ge]3 [Ge]3 | %10
w: |||||
 [Gc]2 [Gc] dc[FA] | [EG]6 | [FG]2 [FG] [B,D][CE][DF] | [FB]3 [FB]3 | [FG][FG][FG] [FG][FA][FB] | %15
w: |||||
 [Ec]6 | [EG]3 [CE][EG][Ec] | [Ge]3- [Ge][Fd][Ge] | .[Ec]3 [Fd][Fc][FA] | [EG]3- [EG]3/2 z/ [EG] | %20
w: |||||
 [FG]2 [FG] [B,D][CE][DF] | [FB]3 [FB]3 | [FG][FG][FG] [DG][DG][B,F] | [CE]6 | [EG]3 [CE][EG][Ec] | %25
w: |||||
 [Ge]3- [Ge][Fd][Ge] | .[Ec]3 [Fd][Fc][FA] | [EG]3- [EG]3/2 z/ [EG] | [FG]2 [FG] [B,D][CE][DF] | %29
w: ||||
 [FB]3 [FB]3 | [FG][FG][FG] [FG][FA][FB] | [Ec]6- | [Ec]3 z3 |] %33
w: ||||
V:2
 x6 | x6 | z3 .F3 | x6 | x6 | x6 | x6 | x6 | x6 | x6 | z3 .F3 | x6 | x6 | x6 | x6 | x6 | x6 | x6 | %18
 x6 | x6 | x6 | x6 | x6 | x6 | x6 | x6 | x6 | x6 | x6 | x6 | x6 | x6 | x6 |] %33
V:3
 C2 C G,CC | C3 C3 | G,2 G, A,2 C | C6 | B,2 B, G,2 B, | D3 D3 | D2 D B,2[K:bass] G, | G,6 | %8
 C2 C G,2 G, | C3 C3 | G,2 _B, A,2 C | C6 | B,2 B, G,2 G, | D3 D3 | B,B,B, B,[K:treble]CD | C6 | %16
 CCC .G,3 | CCC .C3 | .G,3 A,A,C | C3- C3/2 z/ C | B,2 B, G,G,G, | D3 D3 | DDD[K:bass] B,B,G, | %23
 G,6 | C[K:treble]CC .G,3 | CCC .C3 | .G,3 A,A,C | C3- C3/2 z/ C | B,2 B, G,G,G, | D3 D3 | %30
 B,B,B,[K:treble] B,CD | C6- | C3 z3 |] %33
V:4
 C,2 C, C,2 C, | C,3 C,3 | E,2 E, F,2 F, | C,6 | G,2 G, z2 G, | G,,3 G,,3 | B,,2 B,, G,,2 G,, | %7
 C,6 | C,2 C, C,2 C, | C,3 C,3 | E,2 E, F,2 F, | C,6 | D,2 D, G,,2 G,, | G,,3 G,,3 | %14
 G,G,G, G,G,G, | C,6 | C,C,C, .C,3 | C,C,C, .C,3 | .C,3 F,F,F, | C,3- C,3/2 z/ C, | %20
 D,2 D, G,,G,,G,, | G,3 G,3 | B,,B,,B,, G,,G,,G,, | C,6 | C,C,C, .C,3 | C,C,C, .C,3 | .C,3 F,F,F, | %27
 C,3- C,3/2 z/ C, | D,2 D, G,,G,,G,, | G,3 G,3 | G,G,G, G,G,G, | C,6- | C,3 z3 |] %33

